X: 38
T: The BREWER'S HORSE
%R: hornpipe, reel
B: Jean White "100 Popular Hornpipes, Reels, Jigs and Country Dances", Boston 1880 p.17
F: http://www.loc.gov/resource/sm1880.09124.0#seq-1
Z: 2014 John Chambers <jc:trillian.mit.edu>
M: C|
L: 1/8
K: Bb
% - - - - - - - - - - - - - - - - - - - - - - - - - - - - -
|:\
BFdB fdbf | geGc BAGF |\
GEDE CEGB | efgc BAGF |
BFdB fdbf | geGc BAGF |\
GEDE CA,B,2 | ecBA B2b2 :|
|:\
DB,FD BFdB | efgc BAGF |\
GBec Acfb | (3aba (3gf=e f2 (3d_ef |
gede fcAB | GBec BAGF |\
GEDE CA,B,2 | ecBA B2b2 H:|
% - - - - - - - - - - - - - - - - - - - - - - - - - - - - -

%%sep 1 1 500
%%sep 1 1 500
